other/gpstest.svg

<?xml version="1.0" encoding="UTF-8" standalone="no"?>
<svg width="48" height="48" viewBox="0 0 48 48" version="1.1" >
    <defs>
        <style>.cls-1{fill:#fff;}</style>
    </defs>
    <path
        class="cls-1"
        d="m 7.754219,15.705749 c 4.151785,-0.01154 6.904269,-2.76401 6.915804,-6.9157981 l -6.9150436,-0.0094 z M 19.511082,8.7899509 C 19.453456,15.064887 14.055277,20.405354 7.7549794,20.543675 v 4.612468 C 16.883837,25.073143 24.093942,17.868088 24.121613,8.7899509 Z M 29.884774,25.387873 21.816346,35.060768 16.283702,28.845767 7.7549794,39.219605 40.258474,39.219469 Z"
        id="path-1" />
</svg>

<?xml version="1.0" encoding="UTF-8"?>
<svg version="1.1" viewBox="0 0 48 48" xmlns="http://www.w3.org/2000/svg">
    <defs>
        <style>.cls-1{fill:#fff;}</style>
    </defs>
    <path class="cls-1" d="m7.7542 15.706c4.1518-0.01154 6.9043-2.764 6.9158-6.9158l-6.915-0.0094zm11.757-6.9158c-0.057626 6.2749-5.4558 11.615-11.756 11.754v4.6125c9.1289-0.083 16.339-7.2881 16.367-16.366zm10.374 16.598-8.0684 9.6729-5.5326-6.215-8.5287 10.374 32.503-1.36e-4z"/>
</svg>
